X: 161
T:Kilty Lads
% Nottingham Music Database
S:EF
M:6/8
K:Em
|:B|"Em"E2F G2A|"Em"B2B "D7"B2A|"G"G2B d2B|"D"A2F DEF|
"Em"E2F G2A|"G"B2B "C"e3| "G"d2B "D"B2A|[1"Em"B2E E2:|[2 B2E E3||
"Em"e2e "B7"B2^d|"Em"e2e "A7"B2^c|"D"d2B A2G|"D"F2E DEF|"Em"e2e "B7"B2^d|
"Em"e2e "A7"B2^c|"D"d2B A2G|"D"F2D A2F|"Em"e2e "B7"B2^d|"Em"e2e "A7"B2^c|\
"D"d2B A2G|
"D"F2E DEF|"Em"E2F G2A|"G"B2B "C"e3|"G"d2B "D"B2A|"Em"B2E E2||


